icons/check-circle.svg

<svg width="24" height="24" viewBox="0 0 24 24" fill="none" xmlns="http://www.w3.org/2000/svg">
<path fill-rule="evenodd" clip-rule="evenodd" d="M12 3.75C7.41421 3.75 3.75 7.41421 3.75 12C3.75 16.5858 7.41421 20.25 12 20.25C16.4858 20.25 20.25 16.4858 20.25 12C20.25 7.41421 16.5858 3.75 12 3.75ZM2.25 12C2.25 6.58579 6.58579 2.25 12 2.25C17.4142 2.25 21.75 6.58579 21.75 12C21.75 17.3142 17.3142 21.75 12 21.75C6.58579 21.75 2.25 17.4142 2.25 12Z" fill="black"/>
<path fill-rule="evenodd" clip-rule="evenodd" d="M16.4354 8.77479C16.7255 9.07046 16.721 9.54532 16.4253 9.83541L11.1274 15.0333C10.9456 15.2142 10.6671 15.4001 10.3 15.4001C9.93094 15.4001 9.65143 15.2121 9.46968 15.0304L9.43524 14.996L7.40554 12.3574C7.15299 12.0291 7.21441 11.5582 7.54272 11.3056C7.87104 11.0531 8.34192 11.1145 8.59447 11.4428L10.3367 13.7077L15.3748 8.76469C15.6704 8.4746 16.1453 8.47912 16.4354 8.77479Z" fill="black"/>
</svg>

<svg xmlns="http://www.w3.org/2000/svg" fill="none" viewBox="0 0 24 24">
  <path fill="#000" fill-rule="evenodd" d="M12 3.75A8.213 8.213 0 0 0 3.75 12 8.213 8.213 0 0 0 12 20.25c4.486 0 8.25-3.764 8.25-8.25A8.213 8.213 0 0 0 12 3.75ZM2.25 12A9.713 9.713 0 0 1 12 2.25 9.713 9.713 0 0 1 21.75 12c0 5.314-4.436 9.75-9.75 9.75A9.713 9.713 0 0 1 2.25 12Z" clip-rule="evenodd"/>
  <path fill="#000" fill-rule="evenodd" d="M16.435 8.775a.75.75 0 0 1-.01 1.06l-5.298 5.198c-.181.181-.46.367-.827.367-.37 0-.649-.188-.83-.37l-.035-.034-2.03-2.639a.75.75 0 0 1 1.19-.914l1.742 2.265 5.038-4.943a.75.75 0 0 1 1.06.01Z" clip-rule="evenodd"/>
</svg>
